src/assets/icon/company/Deloitte.svg

<svg width="200" height="80" viewBox="0 0 200 80" fill="none" xmlns="http://www.w3.org/2000/svg">
<path d="M161.529 48.8651C161.529 46.8294 163.188 45.2461 165.148 45.2461C167.184 45.2461 168.767 46.9048 168.767 48.8651C168.767 50.8253 167.109 52.484 165.148 52.484C163.188 52.484 161.529 50.9007 161.529 48.8651Z" fill="white"/>
<path d="M52.8091 39.1413C52.8091 43.3634 51.7536 46.53 49.4917 48.7919C47.2299 51.0537 44.0633 52.1847 39.9919 52.1847H32V27.078H40.4443C44.4402 27.078 47.456 28.0581 49.5671 30.1692C51.7536 32.2049 52.8091 35.2207 52.8091 39.1413ZM45.8727 39.3674C45.8727 37.0302 45.4204 35.3715 44.5156 34.2406C43.6863 33.185 42.2538 32.5819 40.4443 32.5819H38.6348V46.6054H40.1427C42.1784 46.6054 43.6109 46.0022 44.591 44.7959C45.4204 43.5896 45.8727 41.7801 45.8727 39.3674Z" fill="white"/>
<path d="M81.0078 27H74.75V52.182H81.0078V27Z" fill="white"/>
<path d="M101.665 42.76C101.665 45.7758 100.911 48.1884 99.2522 49.9225C97.5935 51.6566 95.3316 52.486 92.4666 52.486C89.677 52.486 87.4905 51.6566 85.8318 49.8471C84.1731 48.0377 83.3438 45.7004 83.3438 42.76C83.3438 39.7442 84.0977 37.3315 85.7564 35.6728C87.4151 33.9387 89.677 33.1094 92.542 33.1094C94.3515 33.1094 95.9348 33.4864 97.2919 34.2403C98.7244 34.9943 99.7045 36.1252 100.458 37.5577C101.363 39.141 101.665 40.7997 101.665 42.76ZM89.8277 42.76C89.8277 44.4187 90.0539 45.5496 90.4309 46.379C90.8079 47.2083 91.4865 47.5853 92.542 47.5853C93.5975 47.5853 94.2007 47.2083 94.6531 46.379C95.03 45.5496 95.2562 44.2679 95.2562 42.76C95.2562 41.1013 95.03 39.9704 94.6531 39.141C94.2761 38.387 93.5975 37.9347 92.542 37.9347C91.6372 37.9347 90.8833 38.3117 90.4309 39.141C90.0539 39.9704 89.8277 41.1013 89.8277 42.76Z" fill="white"/>
<path d="M110.486 33.4102H104.229V52.1082H110.486V33.4102Z" fill="white"/>
<path d="M110.486 27H104.229V31.2221H110.486V27Z" fill="white"/>
<path d="M123.228 47.354C124.057 47.354 125.112 47.1278 126.243 46.7508V51.5007C125.414 51.8777 124.585 52.1039 123.831 52.2547C123.077 52.4055 122.172 52.4808 121.117 52.4808C119.005 52.4808 117.498 51.9531 116.517 50.8222C115.613 49.7666 115.085 48.1079 115.085 45.9215V38.2311H112.898V33.4058H115.085V28.7313L121.418 27.6758V33.5566H125.489V38.3065H121.418V45.5445C121.569 46.8262 122.097 47.354 123.228 47.354Z" fill="white"/>
<path d="M137.857 47.354C138.686 47.354 139.741 47.1278 140.872 46.7508V51.5007C140.043 51.8777 139.214 52.1039 138.46 52.2547C137.706 52.4055 136.801 52.4808 135.745 52.4808C133.634 52.4808 132.126 51.9531 131.146 50.8222C130.242 49.7666 129.714 48.1079 129.714 45.9215V38.2311H127.527V33.4058H129.714V28.6559L136.047 27.6758V33.5566H140.118V38.3065H136.047V45.5445C136.122 46.8262 136.726 47.354 137.857 47.354Z" fill="white"/>
<path d="M157.76 35.2958C156.252 33.7879 154.141 33.1094 151.426 33.1094C148.561 33.1094 146.299 33.9387 144.716 35.6728C143.133 37.4069 142.379 39.8196 142.379 42.9862C142.379 46.002 143.208 48.4146 144.867 50.0733C146.601 51.732 148.938 52.5614 151.954 52.5614C153.462 52.5614 154.668 52.486 155.724 52.2598C156.704 52.0336 157.835 51.732 158.74 51.2043L157.835 46.9821C157.156 47.2837 156.402 47.5099 155.799 47.6607C154.895 47.8869 153.839 47.9623 152.783 47.9623C151.577 47.9623 150.597 47.6607 149.918 47.1329C149.24 46.5297 148.863 45.7004 148.863 44.6449H160.097V41.7044C160.021 38.9148 159.192 36.8037 157.76 35.2958ZM148.863 40.4981C148.938 39.518 149.24 38.6886 149.692 38.2363C150.145 37.7839 150.748 37.5577 151.577 37.5577C152.331 37.5577 153.085 37.7839 153.537 38.3117C153.99 38.8394 154.216 39.518 154.291 40.4981H148.863Z" fill="white"/>
<path d="M70.076 35.2958C68.4927 33.7879 66.457 33.1094 63.7428 33.1094C60.8777 33.1094 58.6159 33.9387 57.0326 35.6728C55.4493 37.4069 54.6953 39.8196 54.6953 42.9862C54.6953 46.002 55.5247 48.4146 57.1834 50.0733C58.9175 51.732 61.2547 52.5614 64.2705 52.5614C65.7784 52.5614 66.9848 52.486 68.0403 52.2598C69.0204 52.0336 70.1514 51.732 71.0561 51.2043L70.1514 46.9067C69.4728 47.2083 68.7188 47.4345 68.1157 47.5853C67.2109 47.8115 66.1554 47.8869 65.0999 47.8869C63.8935 47.8869 62.9134 47.5853 62.2348 47.0575C61.5563 46.4544 61.1793 45.625 61.1793 44.5695H72.4132V41.7044C72.3378 38.9148 71.5085 36.8037 70.076 35.2958ZM61.1039 40.4981C61.1793 39.518 61.4809 38.6886 61.9333 38.2363C62.3856 37.7839 62.9888 37.5577 63.8181 37.5577C64.6475 37.5577 65.3261 37.7839 65.7784 38.3117C66.2308 38.8394 66.457 39.518 66.5324 40.4981H61.1039Z" fill="white"/>
</svg>

<svg width="200" height="80" fill="none" xmlns="http://www.w3.org/2000/svg"><path d="M161.529 48.865a3.62 3.62 0 0 1 7.238 0c0 1.96-1.658 3.619-3.619 3.619a3.62 3.62 0 0 1-3.619-3.619ZM52.81 39.141c0 4.222-1.056 7.389-3.318 9.65-2.262 2.263-5.429 3.394-9.5 3.394H32V27.078h8.444c3.996 0 7.012.98 9.123 3.091 2.187 2.036 3.242 5.052 3.242 8.972Zm-6.937.226c0-2.337-.453-3.995-1.357-5.126-.83-1.056-2.262-1.66-4.072-1.66h-1.81v14.024h1.509c2.035 0 3.468-.603 4.448-1.81.83-1.205 1.282-3.015 1.282-5.428ZM81.008 27H74.75v25.182h6.258V27ZM101.665 42.76c0 3.016-.754 5.428-2.413 7.163-1.658 1.734-3.92 2.563-6.785 2.563-2.79 0-4.977-.83-6.635-2.639-1.659-1.81-2.488-4.147-2.488-7.087 0-3.016.754-5.428 2.412-7.087 1.66-1.734 3.921-2.564 6.786-2.564 1.81 0 3.393.377 4.75 1.131 1.432.754 2.412 1.885 3.166 3.318.905 1.583 1.207 3.242 1.207 5.202Zm-11.837 0c0 1.659.226 2.79.603 3.619.377.83 1.056 1.206 2.111 1.206 1.055 0 1.659-.377 2.111-1.206.377-.83.603-2.111.603-3.619 0-1.659-.226-2.79-.603-3.619-.377-.754-1.056-1.206-2.111-1.206-.905 0-1.659.377-2.111 1.206-.377.83-.603 1.96-.603 3.619ZM110.486 33.41h-6.257v18.698h6.257V33.41ZM110.486 27h-6.257v4.222h6.257V27ZM123.228 47.354c.829 0 1.884-.226 3.015-.603v4.75c-.829.377-1.658.603-2.412.754-.754.15-1.659.226-2.714.226-2.112 0-3.619-.528-4.6-1.659-.904-1.055-1.432-2.714-1.432-4.9v-7.69h-2.187v-4.826h2.187V28.73l6.333-1.055v5.88h4.071v4.75h-4.071v7.239c.151 1.281.679 1.809 1.81 1.809ZM137.857 47.354c.829 0 1.884-.226 3.015-.603v4.75c-.829.377-1.658.603-2.412.754-.754.15-1.659.226-2.715.226-2.111 0-3.619-.528-4.599-1.659-.904-1.055-1.432-2.714-1.432-4.9v-7.69h-2.187v-4.826h2.187v-4.75l6.333-.98v5.88h4.071v4.75h-4.071v7.239c.075 1.281.679 1.809 1.81 1.809ZM157.76 35.296c-1.508-1.508-3.619-2.187-6.334-2.187-2.865 0-5.127.83-6.71 2.564-1.583 1.734-2.337 4.147-2.337 7.313 0 3.016.829 5.429 2.488 7.087 1.734 1.659 4.071 2.488 7.087 2.488 1.508 0 2.714-.075 3.77-.301.98-.226 2.111-.528 3.016-1.056l-.905-4.222c-.679.302-1.433.528-2.036.679-.904.226-1.96.301-3.016.301-1.206 0-2.186-.301-2.865-.83-.678-.602-1.055-1.432-1.055-2.487h11.234v-2.94c-.076-2.79-.905-4.901-2.337-6.41Zm-8.897 5.202c.075-.98.377-1.81.829-2.262.453-.452 1.056-.678 1.885-.678.754 0 1.508.226 1.96.754.453.527.679 1.206.754 2.186h-5.428ZM70.076 35.296c-1.583-1.508-3.619-2.187-6.333-2.187-2.865 0-5.127.83-6.71 2.564-1.584 1.734-2.338 4.147-2.338 7.313 0 3.016.83 5.429 2.488 7.087 1.734 1.659 4.072 2.488 7.087 2.488 1.508 0 2.715-.075 3.77-.301.98-.226 2.111-.528 3.016-1.056l-.905-4.297c-.678.301-1.432.528-2.035.678-.905.227-1.96.302-3.016.302-1.206 0-2.187-.302-2.865-.83-.679-.603-1.056-1.432-1.056-2.488h11.234v-2.865c-.075-2.79-.904-4.9-2.337-6.408Zm-8.972 5.202c.075-.98.377-1.81.83-2.262.452-.452 1.055-.678 1.884-.678.83 0 1.508.226 1.96.754.453.527.679 1.206.754 2.186h-5.428Z" fill="#fff"/></svg>
